build/img/logo-mobile.svg

<svg width="73" height="38" viewBox="0 0 73 38" fill="none" xmlns="http://www.w3.org/2000/svg">
<g clip-path="url(#clip0)">
<path d="M11.584 16L11.568 9.296L8.272 14.816H7.12L3.824 9.424V16H1.392V4.8H3.536L7.728 11.76L11.856 4.8H14L14.016 16H11.584ZM22.1423 16.192C20.9796 16.192 19.9289 15.9413 18.9903 15.44C18.0623 14.9387 17.3316 14.2507 16.7983 13.376C16.2756 12.4907 16.0143 11.4987 16.0143 10.4C16.0143 9.30133 16.2756 8.31467 16.7983 7.44C17.3316 6.55467 18.0623 5.86133 18.9903 5.36C19.9289 4.85867 20.9796 4.608 22.1423 4.608C23.3049 4.608 24.3503 4.85867 25.2783 5.36C26.2063 5.86133 26.9369 6.55467 27.4703 7.44C28.0036 8.31467 28.2703 9.30133 28.2703 10.4C28.2703 11.4987 28.0036 12.4907 27.4703 13.376C26.9369 14.2507 26.2063 14.9387 25.2783 15.44C24.3503 15.9413 23.3049 16.192 22.1423 16.192ZM22.1423 13.984C22.8036 13.984 23.4009 13.8347 23.9343 13.536C24.4676 13.2267 24.8836 12.8 25.1823 12.256C25.4916 11.712 25.6463 11.0933 25.6463 10.4C25.6463 9.70667 25.4916 9.088 25.1823 8.544C24.8836 8 24.4676 7.57867 23.9343 7.28C23.4009 6.97067 22.8036 6.816 22.1423 6.816C21.4809 6.816 20.8836 6.97067 20.3503 7.28C19.8169 7.57867 19.3956 8 19.0863 8.544C18.7876 9.088 18.6383 9.70667 18.6383 10.4C18.6383 11.0933 18.7876 11.712 19.0863 12.256C19.3956 12.8 19.8169 13.2267 20.3503 13.536C20.8836 13.8347 21.4809 13.984 22.1423 13.984ZM38.8048 4.8V16H36.2448V13.024H33.8768L31.8928 16H29.1568L31.4928 12.624C30.7354 12.3147 30.1541 11.8507 29.7488 11.232C29.3434 10.6027 29.1408 9.85067 29.1408 8.976C29.1408 8.112 29.3381 7.37067 29.7328 6.752C30.1274 6.12267 30.6874 5.64267 31.4128 5.312C32.1381 4.97067 32.9914 4.8 33.9728 4.8H38.8048ZM34.0368 6.912C33.3008 6.912 32.7354 7.08267 32.3408 7.424C31.9568 7.76533 31.7648 8.272 31.7648 8.944C31.7648 9.59467 31.9514 10.096 32.3248 10.448C32.6981 10.8 33.2474 10.976 33.9728 10.976H36.2448V6.912H34.0368Z" fill="#151F6D"/>
<path d="M6.24 24.8C7.232 24.8 8.09067 24.9653 8.816 25.296C9.552 25.6267 10.1173 26.096 10.512 26.704C10.9067 27.312 11.104 28.032 11.104 28.864C11.104 29.6853 10.9067 30.4053 10.512 31.024C10.1173 31.632 9.552 32.1013 8.816 32.432C8.09067 32.752 7.232 32.912 6.24 32.912H3.984V36H1.392V24.8H6.24ZM6.096 30.8C6.87467 30.8 7.46667 30.6347 7.872 30.304C8.27733 29.9627 8.48 29.4827 8.48 28.864C8.48 28.2347 8.27733 27.7547 7.872 27.424C7.46667 27.0827 6.87467 26.912 6.096 26.912H3.984V30.8H6.096ZM18.3141 36.192C17.1515 36.192 16.1008 35.9413 15.1621 35.44C14.2341 34.9387 13.5035 34.2507 12.9701 33.376C12.4475 32.4907 12.1861 31.4987 12.1861 30.4C12.1861 29.3013 12.4475 28.3147 12.9701 27.44C13.5035 26.5547 14.2341 25.8613 15.1621 25.36C16.1008 24.8587 17.1515 24.608 18.3141 24.608C19.4768 24.608 20.5221 24.8587 21.4501 25.36C22.3781 25.8613 23.1088 26.5547 23.6421 27.44C24.1755 28.3147 24.4421 29.3013 24.4421 30.4C24.4421 31.4987 24.1755 32.4907 23.6421 33.376C23.1088 34.2507 22.3781 34.9387 21.4501 35.44C20.5221 35.9413 19.4768 36.192 18.3141 36.192ZM18.3141 33.984C18.9755 33.984 19.5728 33.8347 20.1061 33.536C20.6395 33.2267 21.0555 32.8 21.3541 32.256C21.6635 31.712 21.8181 31.0933 21.8181 30.4C21.8181 29.7067 21.6635 29.088 21.3541 28.544C21.0555 28 20.6395 27.5787 20.1061 27.28C19.5728 26.9707 18.9755 26.816 18.3141 26.816C17.6528 26.816 17.0555 26.9707 16.5221 27.28C15.9888 27.5787 15.5675 28 15.2581 28.544C14.9595 29.088 14.8101 29.7067 14.8101 30.4C14.8101 31.0933 14.9595 31.712 15.2581 32.256C15.5675 32.8 15.9888 33.2267 16.5221 33.536C17.0555 33.8347 17.6528 33.984 18.3141 33.984ZM31.7349 36.192C30.5935 36.192 29.5589 35.9467 28.6309 35.456C27.7135 34.9547 26.9882 34.2667 26.4549 33.392C25.9322 32.5067 25.6709 31.5093 25.6709 30.4C25.6709 29.2907 25.9322 28.2987 26.4549 27.424C26.9882 26.5387 27.7135 25.8507 28.6309 25.36C29.5589 24.8587 30.5989 24.608 31.7509 24.608C32.7215 24.608 33.5962 24.7787 34.3749 25.12C35.1642 25.4613 35.8255 25.952 36.3589 26.592L34.6949 28.128C33.9375 27.2533 32.9989 26.816 31.8789 26.816C31.1855 26.816 30.5669 26.9707 30.0229 27.28C29.4789 27.5787 29.0522 28 28.7429 28.544C28.4442 29.088 28.2949 29.7067 28.2949 30.4C28.2949 31.0933 28.4442 31.712 28.7429 32.256C29.0522 32.8 29.4789 33.2267 30.0229 33.536C30.5669 33.8347 31.1855 33.984 31.8789 33.984C32.9989 33.984 33.9375 33.5413 34.6949 32.656L36.3589 34.192C35.8255 34.8427 35.1642 35.3387 34.3749 35.68C33.5855 36.0213 32.7055 36.192 31.7349 36.192ZM43.1099 36.192C41.9685 36.192 40.9339 35.9467 40.0059 35.456C39.0885 34.9547 38.3632 34.2667 37.8299 33.392C37.3072 32.5067 37.0459 31.5093 37.0459 30.4C37.0459 29.2907 37.3072 28.2987 37.8299 27.424C38.3632 26.5387 39.0885 25.8507 40.0059 25.36C40.9339 24.8587 41.9739 24.608 43.1259 24.608C44.0965 24.608 44.9712 24.7787 45.7499 25.12C46.5392 25.4613 47.2005 25.952 47.7339 26.592L46.0699 28.128C45.3125 27.2533 44.3739 26.816 43.2539 26.816C42.5605 26.816 41.9419 26.9707 41.3979 27.28C40.8539 27.5787 40.4272 28 40.1179 28.544C39.8192 29.088 39.6699 29.7067 39.6699 30.4C39.6699 31.0933 39.8192 31.712 40.1179 32.256C40.4272 32.8 40.8539 33.2267 41.3979 33.536C41.9419 33.8347 42.5605 33.984 43.2539 33.984C44.3739 33.984 45.3125 33.5413 46.0699 32.656L47.7339 34.192C47.2005 34.8427 46.5392 35.3387 45.7499 35.68C44.9605 36.0213 44.0805 36.192 43.1099 36.192ZM49.4233 24.8H51.9993V32.096L57.3433 24.8H59.7753V36H57.2153V28.72L51.8713 36H49.4233V24.8ZM71.5079 24.8V36H68.9479V33.024H66.5799L64.5959 36H61.8599L64.1959 32.624C63.4385 32.3147 62.8572 31.8507 62.4519 31.232C62.0465 30.6027 61.8439 29.8507 61.8439 28.976C61.8439 28.112 62.0412 27.3707 62.4359 26.752C62.8305 26.1227 63.3905 25.6427 64.1159 25.312C64.8412 24.9707 65.6945 24.8 66.6759 24.8H71.5079ZM66.7399 26.912C66.0039 26.912 65.4385 27.0827 65.0439 27.424C64.6599 27.7653 64.4679 28.272 64.4679 28.944C64.4679 29.5947 64.6545 30.096 65.0279 30.448C65.4012 30.8 65.9505 30.976 66.6759 30.976H68.9479V26.912H66.7399Z" fill="#E00640"/>
</g>
<defs>
<clipPath id="clip0">
<rect width="73" height="38" fill="white"/>
</clipPath>
</defs>
</svg>

<svg width="73" height="38" fill="none" xmlns="http://www.w3.org/2000/svg"><g clip-path="url(#clip0)"><path d="M11.584 16l-.016-6.704-3.296 5.52H7.12L3.824 9.424V16H1.392V4.8h2.144l4.192 6.96 4.128-6.96H14l.016 11.2h-2.432zm10.558.192c-1.162 0-2.213-.25-3.152-.752a5.672 5.672 0 01-2.192-2.064c-.522-.885-.784-1.877-.784-2.976s.262-2.085.784-2.96a5.635 5.635 0 012.192-2.08c.939-.501 1.99-.752 3.152-.752 1.163 0 2.208.25 3.136.752a5.635 5.635 0 012.192 2.08c.534.875.8 1.861.8 2.96s-.266 2.09-.8 2.976a5.673 5.673 0 01-2.192 2.064c-.928.501-1.973.752-3.136.752zm0-2.208c.662 0 1.259-.15 1.792-.448.534-.31.95-.736 1.248-1.28.31-.544.464-1.163.464-1.856 0-.693-.154-1.312-.464-1.856a3.163 3.163 0 00-1.248-1.264 3.506 3.506 0 00-1.792-.464c-.661 0-1.258.155-1.792.464a3.27 3.27 0 00-1.264 1.264c-.298.544-.448 1.163-.448 1.856 0 .693.15 1.312.448 1.856.31.544.73.97 1.264 1.28a3.6 3.6 0 001.792.448zM38.805 4.8V16h-2.56v-2.976h-2.368L31.893 16h-2.736l2.336-3.376c-.758-.31-1.339-.773-1.744-1.392-.406-.63-.608-1.381-.608-2.256 0-.864.197-1.605.592-2.224.394-.63.954-1.11 1.68-1.44.725-.341 1.578-.512 2.56-.512h4.832zm-4.768 2.112c-.736 0-1.302.17-1.696.512-.384.341-.576.848-.576 1.52 0 .65.186 1.152.56 1.504.373.352.922.528 1.648.528h2.272V6.912h-2.208z" fill="#151F6D"/><path d="M6.24 24.8c.992 0 1.85.165 2.576.496.736.33 1.301.8 1.696 1.408.395.608.592 1.328.592 2.16 0 .821-.197 1.541-.592 2.16-.395.608-.96 1.077-1.696 1.408-.725.32-1.584.48-2.576.48H3.984V36H1.392V24.8H6.24zm-.144 6c.779 0 1.37-.165 1.776-.496.405-.341.608-.821.608-1.44 0-.63-.203-1.11-.608-1.44-.405-.341-.997-.512-1.776-.512H3.984V30.8h2.112zm12.218 5.392c-1.163 0-2.213-.25-3.152-.752a5.673 5.673 0 01-2.192-2.064c-.523-.885-.784-1.877-.784-2.976s.261-2.085.784-2.96a5.635 5.635 0 012.192-2.08c.939-.501 1.99-.752 3.152-.752 1.163 0 2.208.25 3.136.752a5.635 5.635 0 012.192 2.08c.534.875.8 1.861.8 2.96s-.267 2.09-.8 2.976a5.672 5.672 0 01-2.192 2.064c-.928.501-1.973.752-3.136.752zm0-2.208c.662 0 1.259-.15 1.792-.448.534-.31.95-.736 1.248-1.28.31-.544.464-1.163.464-1.856 0-.693-.155-1.312-.464-1.856a3.162 3.162 0 00-1.248-1.264 3.506 3.506 0 00-1.792-.464 3.51 3.51 0 00-1.792.464 3.28 3.28 0 00-1.264 1.264c-.298.544-.448 1.163-.448 1.856 0 .693.15 1.312.448 1.856.31.544.73.97 1.264 1.28a3.6 3.6 0 001.792.448zm13.42 2.208c-1.14 0-2.175-.245-3.103-.736a5.702 5.702 0 01-2.176-2.064c-.523-.885-.784-1.883-.784-2.992 0-1.11.261-2.101.784-2.976a5.549 5.549 0 012.176-2.064c.928-.501 1.968-.752 3.12-.752.97 0 1.845.17 2.624.512.79.341 1.45.832 1.984 1.472l-1.664 1.536c-.758-.875-1.696-1.312-2.816-1.312-.694 0-1.312.155-1.856.464-.544.299-.97.72-1.28 1.264-.299.544-.448 1.163-.448 1.856 0 .693.15 1.312.448 1.856.31.544.736.97 1.28 1.28.544.299 1.163.448 1.856.448 1.12 0 2.058-.443 2.816-1.328l1.664 1.536a5.187 5.187 0 01-1.984 1.488c-.79.341-1.67.512-2.64.512zm11.376 0c-1.142 0-2.176-.245-3.104-.736a5.702 5.702 0 01-2.176-2.064c-.523-.885-.784-1.883-.784-2.992 0-1.11.261-2.101.784-2.976a5.549 5.549 0 012.176-2.064c.928-.501 1.968-.752 3.12-.752.97 0 1.845.17 2.624.512.79.341 1.45.832 1.984 1.472l-1.664 1.536c-.758-.875-1.696-1.312-2.816-1.312-.694 0-1.312.155-1.856.464-.544.299-.97.72-1.28 1.264-.299.544-.448 1.163-.448 1.856 0 .693.15 1.312.448 1.856.31.544.736.97 1.28 1.28.544.299 1.162.448 1.856.448 1.12 0 2.059-.443 2.816-1.328l1.664 1.536a5.187 5.187 0 01-1.984 1.488c-.79.341-1.67.512-2.64.512zM49.423 24.8H52v7.296l5.344-7.296h2.432V36h-2.56v-7.28L51.871 36h-2.448V24.8zm22.085 0V36h-2.56v-2.976H66.58L64.596 36H61.86l2.336-3.376c-.758-.31-1.339-.773-1.744-1.392-.405-.63-.608-1.381-.608-2.256 0-.864.197-1.605.592-2.224.395-.63.955-1.11 1.68-1.44.725-.341 1.579-.512 2.56-.512h4.832zm-4.768 2.112c-.736 0-1.301.17-1.696.512-.384.341-.576.848-.576 1.52 0 .65.186 1.152.56 1.504.373.352.922.528 1.648.528h2.272v-4.064H66.74z" fill="#E00640"/></g><defs><clipPath id="clip0"><path fill="#fff" d="M0 0h73v38H0z"/></clipPath></defs></svg>
